icons/outline/music-cog.svg

<!--
category: Media
tags: [settings, gear, adjust, control, mechanism, configure, modulate, tweak, system, arrange]
version: "2.28"
unicode: "fbd9"
-->
<svg
  xmlns="http://www.w3.org/2000/svg"
  width="24"
  height="24"
  viewBox="0 0 24 24"
  fill="none"
  stroke="currentColor"
  stroke-width="2"
  stroke-linecap="round"
  stroke-linejoin="round"
>
  <path d="M3 17a3 3 0 1 0 6 0a3 3 0 0 0 -6 0m6 0v-13h10v7.5m-10 -3.5h10m.001 11m-2 0a2 2 0 1 0 4 0a2 2 0 1 0 -4 0m2 -3.5v1.5m0 4v1.5m3.031 -5.25l-1.299 .75m-3.463 2l-1.3 .75m0 -3.5l1.3 .75m3.463 2l1.3 .75" />
</svg>

<!--
category: Media
tags: [settings, gear, adjust, control, mechanism, configure, modulate, tweak, system, arrange]
version: "2.28"
unicode: "fbd9"
-->
<svg
  xmlns="http://www.w3.org/2000/svg"
  width="24"
  height="24"
  viewBox="0 0 24 24"
  fill="none"
  stroke="currentColor"
  stroke-width="2"
  stroke-linecap="round"
  stroke-linejoin="round"
>
    <path d="M3 17a3 3 0 1 0 6 0a3 3 0 0 0 -6 0M9 17v-13h10v7.5M9 8h10M19.001 19m-2 0a2 2 0 1 0 4 0a2 2 0 1 0 -4 0M19.001 15.5v1.5M19.001 21v1.5M22.032 17.25l-1.299 .75M17.27 20l-1.3 .75M15.97 17.25l1.3 .75M20.733 20l1.3 .75" />
</svg>
